X: 1
T: Windsor
C: Muriel A Johnstone
R: Strathspey
%Q: 128
N: Bar lines fixed by JC 2013-09-29
K: D
M: 4/4
L: 1/16
|: A,4 |\
D6 F2 A4 A4 | D6 B,2 A,6 A,2 | A,2D2 F2A2 d6 d2 | d4 ((3d2e2f2) e4 d2e2 | 
f2e2 d2B2 A2B2 d2F2 | E4 F2A2 B4 B2c2 | d3e d2B2 A2B2 d2F2 | E6 F2 B4A4 | 
D4 FA3 C4 FA3 | B,4 G2F2 E2F2 A2B2 | B6 A2 a2f2 d2A2 | B6 d2 f4e4 | 
D4 FA3 C4 FA3 | B,4 G2F2 E2F2 A2B2 | d6 f2 e2d2 B2G2 | F6 E2 D4 :| 
